X:1
T:California Dreaming
T:California Dreaming 
T:Mamas and Papas
C:John Phillips
Z:All Rights Reserved
L:1/8
M:4/4
K:F
V:1 treble nm="Flute"
%%MIDI program 73
%%MIDI control 7 101
%%MIDI control 10 64
V:1
 F8- | F2 EF G3 F/E/ | F8 | z2 EF G2 FD | C4 ^C4 | D2 z B BBBB | BA- A4 z2 | z2 z ^c e2{/^g} a2 | %8
 _a2 fg- g3 d | (_ag)fg- g2 z f | a2 a2 ageg | a2{/^g} a2 ac'a=g | a2 f_a gf =a2- | %13
 af_ag- g2 .f.g | aaag gee^c | ^cBBA A4 |] %16

